X:1
T:Barragh, 88.88.88
T:John Chetham, A Book of Psalmody, 1718
T:Barragh, 88.88.88
T:Public Domain
C:John Chetham, A Book of Psalmody, 1718
Z:Public Domain
%%score ( 1 2 ) ( 3 4 )
L:1/8
M:none
K:C
V:1 treble 
V:2 treble 
V:3 bass 
V:4 bass 
V:1
 [EA]2 | [CE]2 [EA]2 [E^G]2 [EA]2 | [Dd][Ec]BA [E^G]2 ED | [CA]2 GF E2 [FA]2 | %4
 A2 z D [CA]2 [B,E]2 | [A,E]2 [EA]2 [E^G]2 [EA]2 | [Dd][Ec]BA [E^G]2 [EG]2 | EF [GB]2 [Gc]2 dc | %8
 c2 z F [Ec]2 [Gc]2 | [Ge]2 [Gd]2 [Gc]2 GF | [EA]2 BA [E^G]2 ED | [CA]2 GF E2 [FA]2 | %12
 A2 z D [CA]2 |] %13
V:2
 x2 | x8 | x2 F2 x ^G2 x | x2 D2 E2 x2 | E3 ^G2 x3 | x8 | x2 F2 x4 | A2 x3 A2 x | G3 B2 x3 | %9
 x6 B2 | x2 F2 x ^G2 x | x2 D2 E2 x2 | E3 ^G2 x |] %13
V:3
 [A,C]2 | A,,B,,C,D, [E,B,]2 A,G, | [F,A,]2 [D,D]2 [E,B,]2 [E,B,]2 | [F,A,]2 E,D, [C,C]2 [D,A,]2 | %4
 [E,C]2 [E,B,]2 [A,,A,]2 [^G,,B,]2 | A,,B,,C,D, [E,B,]2 A,G, | [F,A,]2 [D,D]2 [E,B,]2 [E,B,]2 | %7
 [A,C]2 [G,D]2 [E,C]2 [F,F]2 | [G,E]2 [G,,D]2 [C,C]2 [C,G,]2 | %9
 [C,C]2 [G,B,]2 [E,G,][F,A,] [G,B,]2 | [A,C]2 DC [E,B,]2 [E,B,]2 | F,E, [D,B,]2 [C,C]2 A,B, | %12
 [E,C]2 [E,B,]2 [A,,A,]2 |] %13
V:4
 x2 | C2 C2 x C2 x | x8 | x2 B,2 x4 | x8 | C2 C2 x C2 x | x8 | x8 | x8 | x8 | x2 D,2 x4 | %11
 A,2 x3 D,2 x | x6 |] %13

